!!!COM: Robert Schumann
!!!CNT: Deutsch
!!!TXO: Deutsch
!!!OTL: Was Soll ich sagen?
!!!LYR: Chamisso
!!!OPR: Lieder und Gesa2nge, i
!!!OPS: Op.27
!!!ONM: No. 3
!!!ENC: Ben Fuhrman
!!!YOR: Schumann Lieder - Max Friedlaender, ed.,
!!!YOR: New York: C. F. Peters, Vol. 1
!!!ODT: 1840/
!!NB: Vocal melody and text only encoded.
!!NB: First instance of melodic material only encoded.
**kern	**silbe
*clefG2	*
*k[f#c#]	*
*M4/4	*
!!created: 6/13/06 9:15
!!proofed and posted: 6/13/06 9:15
!!edit time: 30 minutes
=4	=4
4r	.
8r	.
{8f#	{Mein
4.a	Aug'
8g	ist
=5	=5
4e	tru2b',
8r	.
8g	mein
4.b	Mund
8a	ist
=6	=6
4f#	stumm,
8r	.
8f#	du
4f#	hei-
8f#	-sset
8f#	mich
=7	=7
8g	re-
8e	-den,
8r	.
8d	es
4.f#	sei
8e	dar-
=8	=8
4d	-um!
8r	.
8e	Dein
4.e	Aug'
8d	ist
=9	=9
4c#	klar,
8r	.
8e	dein
4e	Mund
4d	ist
=10	=10
4c#	rot,
8r	.
8c#	und
4f#	was
8f#	du
8f#	nur
=11	=11
(4g	wu2n-
8b)	|
8dd	-schest,
4e#	ist
8e#	ein
8e#	Ge-
=12	=12
4.f#	-bot,
8f#	das
4en	ist
8f#	ein
8g#	Ge-
=13	=13
4a}	-bot.}
4r	.
{4a	{Mein
8fn	Haar
8fn	ist
=14	=14
4e	grau,
4r	.
4a	mein
8fn	Herz
8fn	ist
=15	=15
4.e	wund,
8a	du
4.a	bist
8a	so
=16	=16
4.a	jung
8a	und
4a	bist
8g#	so
8a	ge-
=17	=17
2b}	sund.}
2r	.
!! rest to measure 21
=21	=21
4r	.
8r	.
{8f#	{Du
4a	hei-
8d#	-sset
8d#	mich
=22	=22
8f#	re-
8e	-den,
8r	.
8g	und
4b	machst
8e#	mir's
8e#	so
=23	=23
4.f#	schwer.
8f#	Ich
4f#	seh'
8f#	dich
8f#	so
=24	=24
(4g	an
8d)	|
8f#	und
4f#	zitt-
8e	-re
8e	so
=25	=25
2d}	sehr.}
2r	.
==	==
*-	*-
